symbols-de/shields/motorway_7x2.svg

<?xml version="1.0" encoding="UTF-8" standalone="no"?>
<svg
   xmlns:dc="http://purl.org/dc/elements/1.1/"
   xmlns:cc="http://creativecommons.org/ns#"
   xmlns:rdf="http://www.w3.org/1999/02/22-rdf-syntax-ns#"
   xmlns:svg="http://www.w3.org/2000/svg"
   xmlns="http://www.w3.org/2000/svg"
   xmlns:sodipodi="http://sodipodi.sourceforge.net/DTD/sodipodi-0.dtd"
   xmlns:inkscape="http://www.inkscape.org/namespaces/inkscape"
   width="100%"
   height="100%"
   viewBox="0 0 51.0 24.0"
   id="svg2"
   version="1.1"
   inkscape:version="0.91 r13725"
   sodipodi:docname="autobahn_7x2.svg">
  <metadata
     id="metadata9">
    <rdf:RDF>
      <cc:Work
         rdf:about="">
        <dc:format>image/svg+xml</dc:format>
        <dc:type
           rdf:resource="http://purl.org/dc/dcmitype/StillImage" />
        <dc:title></dc:title>
      </cc:Work>
    </rdf:RDF>
  </metadata>
  <defs
     id="defs7" />
  <sodipodi:namedview
     pagecolor="#ffffff"
     bordercolor="#666666"
     borderopacity="1"
     objecttolerance="10"
     gridtolerance="10"
     guidetolerance="10"
     inkscape:pageopacity="0"
     inkscape:pageshadow="2"
     inkscape:window-width="1099"
     inkscape:window-height="743"
     id="namedview5"
     showgrid="false"
     inkscape:zoom="6.9215686"
     inkscape:cx="25.5"
     inkscape:cy="12"
     inkscape:window-x="399"
     inkscape:window-y="235"
     inkscape:window-maximized="0"
     inkscape:current-layer="svg2" />
  <path
     style="fill:#365eaf;fill-opacity:1;stroke:#0528a2;stroke-width:1;stroke-miterlimit:4;stroke-dasharray:none;stroke-opacity:1"
     d="m 25.5,0.49999907 c -0.358421,0 -0.53711,0.0033 -0.53711,0.01172 L 1.3075422,2.2812501 C 0.7699068,2.3661001 0.5,2.4943631 0.5,2.6640621 c 0,6.223959 0,12.4479179 0,18.6718759 0,0.1697 0.2699064,0.297965 0.8075422,0.382812 L 24.96289,23.48828 c 0,0.0085 0.178693,0.01172 0.53711,0.01172 0.358423,0 0.537109,-0.0033 0.537109,-0.01172 l 23.65535,-1.769531 c 0.537636,-0.08485 0.807542,-0.213113 0.807542,-0.382812 0,-6.223959 0,-12.4479169 0,-18.6718759 0,-0.169699 -0.269906,-0.297965 -0.807542,-0.382812 L 26.037109,0.51171807 c 0,-0.0085 -0.178692,-0.01172 -0.537109,-0.01172 z"
     id="path6"
     inkscape:connector-curvature="0"
     sodipodi:nodetypes="sccccccsccccccs" />
</svg>

<?xml version="1.0" encoding="UTF-8"?>
<svg xmlns="http://www.w3.org/2000/svg" xmlns:xlink="http://www.w3.org/1999/xlink" width="53pt" height="30pt" viewBox="0 0 53 30" version="1.1">
<g id="surface1">
<path style="fill-rule:nonzero;fill:rgb(21.176471%,36.862745%,68.627451%);fill-opacity:1;stroke-width:1;stroke-linecap:butt;stroke-linejoin:miter;stroke:rgb(1.960784%,15.686275%,63.529412%);stroke-opacity:1;stroke-miterlimit:4;" d="M 25.5 0.5 C 25.14291 0.5 24.962485 0.503125 24.962485 0.5125 L 1.308078 2.28125 C 0.770563 2.365625 0.499926 2.49375 0.499926 2.6625 C 0.499926 8.8875 0.499926 15.1125 0.499926 21.3375 C 0.499926 21.50625 0.770563 21.634375 1.308078 21.71875 L 24.962485 23.4875 C 24.962485 23.496875 25.14291 23.5 25.5 23.5 C 25.85709 23.5 26.037515 23.496875 26.037515 23.4875 L 49.691922 21.71875 C 50.229437 21.634375 50.500074 21.50625 50.500074 21.334375 C 50.500074 15.1125 50.500074 8.8875 50.500074 2.6625 C 50.500074 2.49375 50.229437 2.365625 49.691922 2.28125 L 26.037515 0.5125 C 26.037515 0.503125 25.85709 0.5 25.5 0.5 Z M 25.5 0.5 " transform="matrix(1.039216,0,0,1.25,0,0)"/>
</g>
</svg>
